X: 185
T:Louisburg
% Nottingham Music Database
S:EF
Y:AB
M:6/8
K:G
P:A
B/2c/2|"G"d2d dBc|"G"d2d dBd|"C"g2g f2e|"G"d3 "G7/f"d2B|
"C/e"c2e "D7/f+"edc|"G"B2d "Em"G2B|"Am"A2B "D7"cBA|"G"G3 G2:|
K:D
P:B
F/2G/2|"D"A2d "A7/e"c2e|"D/f+"d2f agf|"Em"e2f "A7"gfe|"D"d2f "A7"afd|
"D"A2d "A7"c2e|"D"d2f "Bm"agf|"Em"e2f "A7"gfe|"D"d3 d2:|

